public/assets/images/icons/blue/visibility-invisible/elmo.svg

<svg width="16" height="16" xmlns="http://www.w3.org/2000/svg" viewBox="0 0 16 16" shape-rendering="geometricPrecision" fill="#24437c"><defs><mask id="a"><rect fill="#fff" width="100%" height="100%"/><path d="M12.997.858a4.809 4.809 0 0 0-4.253 2.563 4.81 4.81 0 0 0 8.506 0A4.812 4.812 0 0 0 12.997.858z" fill="#000"/></mask></defs><path d="M12.997 1.611a3.394 3.394 0 0 0-3.003 1.81 3.397 3.397 0 0 0 6.006 0 3.398 3.398 0 0 0-3.003-1.81zm-.001 3.396a1.587 1.587 0 1 1 0-3.174 1.587 1.587 0 0 1 0 3.174z" fill="#cb1800"/><path mask="url(#a)" d="M12.377 4.153a2.267 2.267 0 0 0-2.102-3.12 2.263 2.263 0 0 0-2.198 1.732 2.246 2.246 0 0 0-2.194-1.764 2.25 2.25 0 0 0-2.25 2.25c0 .279.059.545.15.789-1.492.955-2.447 2.488-2.447 4.504 0 3.564 2.982 6.455 6.664 6.455 3.68 0 6.663-2.891 6.663-6.455.001-1.941-.887-3.432-2.286-4.391zm-4.419-.912c1.12 0 2.029 1.143 2.029 2.553 0 1.408-.909 2.551-2.029 2.551-1.121 0-2.029-1.143-2.029-2.551-.001-1.41.907-2.553 2.029-2.553zm.195 10.412c-4.655 0-4.948-4.637-4.948-4.637-.001 0 2.093.635 4.792.635 2.976 0 5.086-.652 5.087-.652-.001 0-.711 4.654-4.931 4.654z"/></svg>

<?xml version="1.0"?><!DOCTYPE svg PUBLIC "-//W3C//DTD SVG 1.1//EN" "http://www.w3.org/Graphics/SVG/1.1/DTD/svg11.dtd"><svg width="16px" height="16px" xmlns="http://www.w3.org/2000/svg" viewBox="0 0 16 16" shape-rendering="geometricPrecision" fill="#24437c"><defs><mask id="visibility-invisible-path"><rect fill="#fff" width="100%" height="100%"/><path d="M12.997,0.858c-1.845,0-3.446,1.039-4.253,2.563c0.808,1.523,2.408,2.562,4.253,2.562 c1.844,0,3.444-1.039,4.253-2.562C16.441,1.897,14.841,0.858,12.997,0.858z" fill="#000"/></mask></defs><g id="visibility-invisible" display="inline" fill="#cb1800"><g><g><path d="M12.997,1.611c-1.303,0-2.433,0.733-3.003,1.81c0.57,1.075,1.7,1.809,3.003,1.809c1.302,0,2.432-0.733,3.003-1.809 C15.429,2.345,14.299,1.611,12.997,1.611z M12.996,5.007c-0.876,0-1.587-0.71-1.587-1.586c0-0.877,0.711-1.588,1.587-1.588 c0.877,0,1.588,0.711,1.588,1.588C14.584,4.297,13.873,5.007,12.996,5.007z"/></g></g></g><path mask="url(#visibility-invisible-path)" d="M12.377,4.153c0.106-0.264,0.167-0.551,0.167-0.85c0-1.256-1.015-2.27-2.269-2.27 c-1.067,0-1.956,0.738-2.198,1.732C7.856,1.757,6.96,1.001,5.883,1.001c-1.242,0-2.25,1.008-2.25,2.25 c0,0.279,0.059,0.545,0.15,0.789C2.291,4.995,1.336,6.528,1.336,8.544c0,3.564,2.982,6.455,6.664,6.455 c3.68,0,6.663-2.891,6.663-6.455C14.664,6.603,13.776,5.112,12.377,4.153z M7.958,3.241c1.12,0,2.029,1.143,2.029,2.553 c0,1.408-0.909,2.551-2.029,2.551c-1.121,0-2.029-1.143-2.029-2.551C5.928,4.384,6.836,3.241,7.958,3.241z M8.153,13.653 c-4.655,0-4.948-4.637-4.948-4.637c-0.001,0,2.093,0.635,4.792,0.635c2.976,0,5.086-0.652,5.087-0.652 C13.083,8.999,12.373,13.653,8.153,13.653z"/></svg>
